icons/airpod-singleB.svg

<svg width="24" height="24" viewBox="0 0 24 24" fill="none" xmlns="http://www.w3.org/2000/svg">
<path d="M16 8.54993C16 10.1499 15.1 11.5499 13.7 12.1499C13.2 12.3499 12.6 12.5499 12 12.5499C10.7 12.5499 9.5 11.9499 8.8 10.9499C8.3 10.2499 8 9.34993 8 8.54993C8 6.34993 9.8 4.54993 12 4.54993C14.2 4.54993 16 6.24993 16 8.54993Z" fill="black"/>
<path fill-rule="evenodd" clip-rule="evenodd" d="M12 5.29993C10.2142 5.29993 8.75 6.76414 8.75 8.54993C8.75 9.18162 8.99393 9.93108 9.4103 10.514L9.41445 10.5198L9.41442 10.5198C9.96365 11.3044 10.926 11.7999 12 11.7999C12.4469 11.7999 12.9324 11.6487 13.4126 11.4571C14.5175 10.9797 15.25 9.86321 15.25 8.54993C15.25 6.67638 13.7981 5.29993 12 5.29993ZM7.25 8.54993C7.25 5.93571 9.38579 3.79993 12 3.79993C14.6019 3.79993 16.75 5.82347 16.75 8.54993C16.75 10.4334 15.6861 12.1147 13.9954 12.8393L13.987 12.8429L13.9785 12.8463C13.4616 13.053 12.7503 13.2999 12 13.2999C10.4753 13.2999 9.03868 12.5966 8.18765 11.383C7.60523 10.5663 7.25 9.51709 7.25 8.54993Z" fill="black"/>
<path fill-rule="evenodd" clip-rule="evenodd" d="M8.45975 9.19885L9.3144 10.4198C9.86363 11.2044 10.8259 11.6999 11.9 11.6999H11.9533L12.006 11.7074C12.4906 11.7766 12.9176 11.6447 13.3141 11.4068L14.5781 10.6484L13.9463 17.7245C13.8073 19.1141 12.579 20.1999 11.2 20.1999C9.85249 20.1999 8.59362 19.2436 8.45339 17.7214L7.84998 11.6873V11.6499C7.84998 11.6438 7.84998 11.6378 7.84998 11.6317C7.84992 11.3308 7.84987 11.0285 7.98847 10.6127L8.45975 9.19885ZM9.44205 12.5332L9.94693 17.582C10.0084 18.2577 10.5485 18.6999 11.2 18.6999C11.8198 18.6999 12.3905 18.1876 12.4534 17.5787L12.8467 13.173C12.5366 13.2297 12.2031 13.2446 11.8478 13.1996C10.9857 13.1905 10.1537 12.9567 9.44205 12.5332Z" fill="black"/>
</svg>

<svg xmlns="http://www.w3.org/2000/svg" fill="none" viewBox="0 0 24 24">
  <path fill="#000" d="M16 8.55c0 1.6-.9 3-2.3 3.6-.5.2-1.1.4-1.7.4-1.3 0-2.5-.6-3.2-1.6-.5-.7-.8-1.6-.8-2.4 0-2.2 1.8-4 4-4s4 1.7 4 4Z"/>
  <path fill="#000" fill-rule="evenodd" d="M12 5.3a3.262 3.262 0 0 0-3.25 3.25c0 .632.244 1.381.66 1.964l.004.006c.55.784 1.512 1.28 2.586 1.28.447 0 .932-.151 1.413-.343 1.104-.477 1.837-1.594 1.837-2.907 0-1.874-1.452-3.25-3.25-3.25ZM7.25 8.55A4.762 4.762 0 0 1 12 3.8c2.602 0 4.75 2.023 4.75 4.75 0 1.883-1.064 3.565-2.755 4.29l-.008.003-.008.003c-.517.207-1.229.454-1.979.454-1.525 0-2.961-.703-3.812-1.917-.583-.817-.938-1.866-.938-2.833Z" clip-rule="evenodd"/>
  <path fill="#000" fill-rule="evenodd" d="m8.46 9.199.854 1.22c.55.785 1.512 1.28 2.586 1.28h.053l.053.008c.485.07.912-.062 1.308-.3l1.264-.759-.632 7.076c-.139 1.39-1.367 2.476-2.746 2.476-1.348 0-2.606-.956-2.747-2.479l-.603-6.034v-.055c0-.301 0-.604.138-1.02L8.46 9.2Zm.982 3.334.505 5.049c.061.676.602 1.118 1.253 1.118.62 0 1.19-.512 1.253-1.121l.394-4.406c-.31.057-.644.072-1 .027a4.808 4.808 0 0 1-2.405-.667Z" clip-rule="evenodd"/>
</svg>
